X:04
T:The Rights Of Man
C:Traditional
S:MandoZine TablEdit Archives
Z:TablEdited by Mike Stangeland for MandoZine
L:1/8
Q:400
M:2/2
K:Em
 z6GA |: BcAB GAFG | EFGA BGef | gfed edBd | cBAG Aedc | BcAB GAFG | EFGA BGef | gfed Bgfg |
 eBGB E2GA | BcAB GAFG | EFGA B2ef | gfed edBd | cBAG Aedc | BcAB GAFG | EFGA B2ef |
 gfed Bgfg | e2E2 E2ga | b2bg efga | b2bg egfe | d2d^c defg | afdf a2gf | e2ef gBga |
 bga/g/f gfef | gfed Bgfg | e2E2 E2ga | b2bg efga | b2bg egfe | d2d^c defg | afdf a2gf |
 eGef gBga | bga/g/f gfef | gfed Bgfg | e2E2 E2GA :|
